Sources/FrostedUI/Resources/Icons.xcassets/globe16.imageset/globe-16.svg

<svg width="16" height="16" viewBox="0 0 16 16" fill="none" xmlns="http://www.w3.org/2000/svg" data-fui-icon="true">
  <g clip-path="url(#clip0_882_1366)">
    <path
      d="M8 0.5C12.1421 0.5 15.5 3.85786 15.5 8C15.5 12.1421 12.1421 15.5 8 15.5C3.85786 15.5 0.5 12.1421 0.5 8C0.5 3.85786 3.85786 0.5 8 0.5ZM6.30273 11C6.42321 11.5576 6.57459 12.0597 6.75 12.4902C6.97713 13.0477 7.22878 13.4491 7.46973 13.6992C7.70868 13.9473 7.8878 14 8 14C8.1122 14 8.29132 13.9473 8.53027 13.6992C8.77122 13.4491 9.02287 13.0477 9.25 12.4902C9.42541 12.0597 9.57679 11.5576 9.69727 11H6.30273ZM2.80469 11C3.43392 12.0873 4.39388 12.958 5.54785 13.4756C5.48255 13.3396 5.41996 13.1996 5.36133 13.0557C5.11626 12.4541 4.91747 11.7594 4.77246 11H2.80469ZM11.2275 11C11.0825 11.7594 10.8837 12.4541 10.6387 13.0557C10.58 13.1997 10.5165 13.3395 10.4512 13.4756C11.6055 12.9581 12.5659 12.0876 13.1953 11H11.2275ZM11.4326 6.5C11.4755 6.98586 11.5 7.48763 11.5 8C11.5 8.51237 11.4755 9.01414 11.4326 9.5H13.8115C13.9349 9.02061 14 8.5179 14 8C14 7.4821 13.9349 6.97939 13.8115 6.5H11.4326ZM6.07422 6.5C6.0277 6.9785 6 7.48054 6 8C6 8.51946 6.0277 9.0215 6.07422 9.5H9.92578C9.9723 9.0215 10 8.51946 10 8C10 7.48054 9.9723 6.9785 9.92578 6.5H6.07422ZM2.18848 6.5C2.0651 6.97939 2 7.4821 2 8C2 8.5179 2.0651 9.02061 2.18848 9.5H4.56738C4.5245 9.01414 4.5 8.51237 4.5 8C4.5 7.48763 4.5245 6.98586 4.56738 6.5H2.18848ZM5.54785 2.52344C4.39372 3.041 3.43398 3.91255 2.80469 5H4.77246C4.91747 4.24064 5.11626 3.54589 5.36133 2.94434C5.42008 2.80013 5.48241 2.65965 5.54785 2.52344ZM8 2C7.8878 2 7.70868 2.0527 7.46973 2.30078C7.22878 2.55094 6.97713 2.9523 6.75 3.50977C6.57459 3.94031 6.42321 4.44241 6.30273 5H9.69727C9.57679 4.44241 9.42541 3.94031 9.25 3.50977C9.02287 2.9523 8.77122 2.55094 8.53027 2.30078C8.29132 2.0527 8.1122 2 8 2ZM10.4512 2.52344C10.5167 2.65976 10.5799 2.8 10.6387 2.94434C10.8837 3.54589 11.0825 4.24064 11.2275 5H13.1953C12.5659 3.9123 11.6057 3.04095 10.4512 2.52344Z"
      fill="currentColor"
    />
  </g>
  <defs>
    <clipPath id="clip0_882_1366"><path fill="currentColor" d="M0 0H16V16H0z" /></clipPath>
  </defs>
</svg>

<svg xmlns="http://www.w3.org/2000/svg" width="16" height="16" fill="none" data-fui-icon="true" viewBox="0 0 16 16"><g clip-path="url(#a)"><path fill="currentColor" d="M8 .5a7.5 7.5 0 1 1 0 15 7.5 7.5 0 0 1 0-15M6.303 11c.12.558.272 1.06.447 1.49.227.558.479.96.72 1.21.239.247.418.3.53.3s.291-.053.53-.3c.241-.25.493-.652.72-1.21.175-.43.327-.932.447-1.49zm-3.498 0a6.02 6.02 0 0 0 2.743 2.476 8 8 0 0 1-.187-.42A11 11 0 0 1 4.772 11zm8.422 0c-.145.76-.343 1.454-.588 2.056a8 8 0 0 1-.188.42A6.02 6.02 0 0 0 13.195 11zm.206-4.5q.066.73.067 1.5-.001.77-.067 1.5h2.379A6 6 0 0 0 14 8a6 6 0 0 0-.188-1.5zm-5.359 0C6.028 6.979 6 7.48 6 8s.028 1.021.074 1.5h3.852C9.972 9.021 10 8.52 10 8s-.028-1.021-.074-1.5zm-3.886 0Q2.002 7.222 2 8q.002.779.188 1.5h2.38A17 17 0 0 1 4.5 8q.001-.77.067-1.5zm3.36-3.977A6.02 6.02 0 0 0 2.805 5h1.967c.145-.76.344-1.454.59-2.056q.087-.216.186-.42M8 2c-.112 0-.291.053-.53.3-.241.25-.493.652-.72 1.21-.175.43-.327.932-.447 1.49h3.394a9 9 0 0 0-.447-1.49c-.227-.558-.479-.96-.72-1.21C8.291 2.054 8.112 2 8 2m2.451.523q.1.205.188.421c.245.602.444 1.297.588 2.056h1.968a6.02 6.02 0 0 0-2.744-2.477"/></g><defs><clipPath id="a"><path fill="currentColor" d="M0 0h16v16H0z"/></clipPath></defs></svg>
